X: 1
T: A Benim Gözüm Nûru
C: Dellalzâde İsmail Efendi
O: Turkey
F: http://compmusic.upf.edu/node/140
N: yegah--sarki--aksak--a_benim--dellalzade_haci_ismail_efendi
N: makam= yegah
N: form= sarki
N: usul= aksak = 9/8
M: 9/8
L: 1/16
K: C _2/4B ^f  
Q: 1/4=192
%%MIDI tuningsystem comma53
d2e4d4c2 {d}c4 B2 | B2 d4 c4 B2B4A2  | \
w:  ARANAĞME  |   | 
A2c4B4A2 A4 G2 | G2 _1/4B4 A2A2 G2^3/4F2 E2D2  | 
w:   |   | 
D2E2 ^3/4F2G2 A2=B2 ^3/4c2d2 z2 | \
w:   | 
d2 e4 d4 c2{d}c4B2  | B2d4c4B2 B4 A2 | 
w:  ARANAĞME  |   | 
A2 c4 B4 A2A4G2  | G2_1/4B4A2 A2G2 ^3/4F2E2 D2 | \
w:   |   | 
E2 G2^3/4F2 E2D2 ^3/4C2D4z2  | 
w:   | 
d8 c2B2 A4 G2 | ^3/4F2 E2F2 G2F2 E2D4z2  | \
w:  A  be *  nim   |  gö *  züm  *  nû *  ru   | 
d4 e4 d2^3/4c2 =B4 c2 | d6 .A2.=B2 .^3/4c2.d4z2  | 
w:  cil ve li  *  yâ  |  rim   SAZ  | 
d8 c2B2 A4 G2 | ^3/4F2 E2F2 G2F2 E2D4z2  | \
w:  A  be *  nim   |  gö *  züm  *  nû *  ru   | 
d4 e4 d2^3/4c2 =B4 c2 | d6 .A2.=B2 .^3/4c2.d4z2  | 
w:  cil ve li  *  yâ  |  rim   SAZ  | 
d8 c2B2 A4 G2 | ^3/4F3EF2 G2F2 E2D4z2  | \
w:  Hay li  *  dem  |  dir  *  *  e fen *  dim   | 
E4 E2G2 ^3/4F2E2 D^3/4CB,2 C2 | 
w:  ben  se ni  a *  ra  | 
D2 .E2.^3/4F2 .G2.A2 .=B2.^3/4c2 .d2z2  | \
w:  rım   SAZ  | 
d8 c2B2 A4 G2 | ^3/4F3EF2 G2F2 E2D4z2  | 
w:  Hay li  *  dem  |  dir  *  *  e fen *  dim   | 
E4 E2G2 ^3/4F2E2 D^3/4CB,2 C2 | D6 g2f2 ^3/4e2f4z2  | \
w:  ben  se ni  a *  ra  |  rım   SAZ  | 
f8 f2^3/4e2 f6 | ^3/4e2 f2.g4f2 =e2d4z2  | 
w:  Has re *  tin  |  le  *  yok  câ *  nâ   | 
d4 ^3/4e2f2 d4 a2g2 f2 | f2 ^3/4e2f2 g2f2 e2{g}f4z2  | \
w:  sab ra  *  ka ra  |  rım    | 
^3/4f8 f2^3/4e2 f6 | ^3/4e2 ^3/4f2g4f2 e2d4z2  | 
w:  Has re *  tin  |  le  *  yok  câ *  nâ   | 
d4 e4 d2^3/4c2 =B4 c2 | d6 .A2.=B2 .^3/4c2.d4z2  | \
w:  sab ra  ka *  ra  |  rım   SAZ  | 
d8 c2B2 A4 G2 | ^3/4F3EF2 G2F2 E2D4z2  | 
w:  Hay li  *  dem  |  dir  *  *  e fen *  dim   | 
E4 E2G2 ^3/4F2E2 D^3/4CB,2 C2 | D2 .E2.^3/4F2 .G2.A2 .=B2.^3/4c2 .d2z2  | \
w:  ben  se ni  a *  ra  |  rım   SAZ  | 
d8 c2B2 A4 G2 | 
w:  Hay li  *  dem  | 
^3/4F3EF2 G2F2 E2D4z2  | E4 E2G2 ^3/4F2E2 D^3/4CB,2 C2 | \
w:  dir  *  *  e fen *  dim   |  ben  se ni  a *  ra  | 
D6 A,2=B,2 ^3/4C2D4z2  | 
w:  rım   KARAR SAZ  | 
|


